!!!OTL: Mother Machree
!!!COM: Olcott, Chauncey
!!!COM: Ball, Ernest
!!!LAR: Crane, Paul
!! "Mother Machree" by Chauncey Olcott & Ernest Ball, arranged by Paul Crane
!! from "Close Harmony Classics for Barbershop Quartets" B. Feldman & Co.;
!! copyright 1910 & 1952 by M Witmark & Sons; pp. 18-19; in C major
!! NOTE: The meter signature alternates between 4/4, 3/4 and 6/8
!!       and several measures are incomplete.
**kern	**kern	**kern	**kern
*Ivox	*Ivox	*Ivox	*Ivox
*M4/4	*M4/4	*M4/4	*M4/4
*C:	*C:	*C:	*C:
4D	4B	4G	4f
=1	=1	=1	=1
4C	4G	4c	4e
4C	4G	4c	4e
4BB	4G#	4d	4e
4BB	4G#	4d	4e
=2	=2	=2	=2
8AA	4A	4c	4e
8A	.	.	.
4F#	4A	4c	4e
[4G	[4B-	[4c	[4e
8G]	8B-]	8c]	8e]
8G	8B-	8c	8e
=3	=3	=3	=3
2A	2c	2e	2f#
4A	4c	4d	4f#
4D	4A	4c	4f#
=4	=4	=4	=4
2G	1Bn	2d	1fn
2D	.	2G	.
=5	=5	=5	=5
*M6/8	*M6/8	*M6/8	*M6/8
8r	8r	16E	8r
.	.	16F	.
=6	=6	=6	=6
8.C	8.c	8.G	8.e
16F#	16c	16A	16e-
8E	8G#	8B	8d
8A	8A	8c	8en
8F#	8A	8B	8d#
8Gn	8B-	8c	8e
=7	=7	=7	=7
8Fn	8c	8A	8f
8C	8c	8G	8e
8C	8c	8E	8g
4C	4c	4G	4e
16C	16c	16E	16g
16GG	16B	16F	16g
=8	=8	=8	=8
8.C	8.c	8.G	8.e
16C	16A	16F#	16d#
8C	8c	8G	8e
8F	8c	8A	8f
8C	8c	8G	8e
8BB	8G	8Fn	8dn
=9	=9	=9	=9
8AA	8F#	8E	8c
8AA	8F#	8D	8c
8AA	8F#	8C	8d
4GG	4Fn	4D	4B
8r	8r	16E	8r
.	.	16F	.
=10	=10	=10	=10
8.C	8.c	8.G	8.e
16F#	16c	16A	16e-
8E	8G#	8B	8d
8A	8A	8c	8en
8E	8Gn	8B	8e
8Gn	8B-	8c	8e
=11	=11	=11	=11
8Fn	8A	8d	8f
8F	8A	8c	8f
8F	8c	8A	8f
4F#	4A	4c	4e-
8F#	8A	8c	8e-
=12	=12	=12	=12
8G-	8A	8c	8e-
8G-	8A	8B	8e-
8G-	8A	8c	8e-
8C	8c	8A	8en
8AA	8c#	8G	8e
8AA	8Gn	8E	8c#
=13	=13	=13	=13
8AA	8F#	8E	8cn
8AA	8F#	8D	8c
8AA	8F#	8C	8d
4D;	4Fn;	4G;	4B;
=14	=14	=14	=14
*M3/4	*M3/4	*M3/4	*M3/4
8D;	8B;	8G;	8f;
8GG	8B	8F	8d
=15	=15	=15	=15
4C	4G	4E	4c
4C	4F#	4D#	4c
4C	4G	4E	4c
=16	=16	=16	=16
4G	4B	4F	4d
4G	4A#	4E	4c#
4G	4B	4F	4d
=17	=17	=17	=17
8C	4c	4G	8e
8E	.	.	8g
4E-	4c	4A	4g-
4D	4Gn	4B	4f
=18	=18	=18	=18
2C	2G	2c	2e
8C	8G	8A	8e
8E	8G#	8B	8d
=19	=19	=19	=19
4F	4A	4c	4f
4F	4G#	4B	4d
4F#	4A	4c	4d#
=20	=20	=20	=20
4Fn	4c	4A	4d#
4C	4c	4G	4e
4AA	4c#	4E	4g
=21	=21	=21	=21
4AA	4cn	4E	4f#
4AA	4c	4D	4f#
4AA	4F#	4C	4dn
=22	=22	=22	=22
2GG	2B	2D	2fn
4G	4B	4D	4f
=23	=23	=23	=23
4G	4c	4E	4g
4A	4c	4D#	4f#
4G	4c	4E	4g
=24	=24	=24	=24
4G	4B	4F	4d
4G	4A#	4E	4c#
4G	4B	4F	4d
=25	=25	=25	=25
8C	4c	4G	8e
8E	.	.	8g
4E-	4c	4A	4g-
4D	4Gn	4B	4f
=26	=26	=26	=26
4C	4G	4c	4e
4BB;	4G#;	4e;	4d;
4BB	4G#	4d	4f
=27	=27	=27	=27
8BB	8G#	4d	4f
8C	8A	.	.
4F	4A	4c	4e-
4F#	4c	4A	4e-
=28	=28	=28	=28
8C	8c	4G	4en
8BB-	8d	.	.
2AA	2c#	2E	2g
=29	=29	=29	=29
4AA	4c#	4E	4g
4F	4A-	4Cn	4d
4A-	4d	4C	4f
=30	=30	=30	=30
2.G	2.cn	2.C	2.e
=31	=31	=31	=31
4C	4G	4c	[4e
4BB	4G#	4d	4e]
4Gn	4B-	4e	4d
=32	=32	=32	=32
4F	4A	4d	4f
4F	4A	4c	4f
4F#	4c	4A	4d#
=33	=33	=33	=33
8C	8c	4G	4e
8B-	8d	.	.
2A	2c#	2E	2g
=34	=34	=34	=34
4F#	4A	4e	4cn
8Fn	4A	4c	8d
8E	.	.	8e
4D	4A-	4c	4f
=35	=35	=35	=35
2.C	2.G	2.c	2.e
==	==	==	==
*-	*-	*-	*-
